X:478
T:Reel 478
M:4/4
K:Dmaj
L:1/8
AG|FDEC A,DD2| (3FGA Bc dBAG|FDDF A2BG|ECA,B, CA,EG|FDEC A,DD2|FABc d2AG|FDEC A,DD2|EDEF G2|AG|FDAD BDAD|FDAD BAGF|FDFD ADFD|EFED CDEG|FDAD ADD2|FDFA d2Bc|dBcA BGAF|EDCD EDCE|
